X: 276
T:Carnival March
C:G.B. Stone
M:4/4
R:March
L:1/8
Z:Alf Warnock - alf0@rogers.com
K:A
e>d|"A"c2B>A c>Ac<e|"D"f>ef<g a2g>f|"A"e2a>f e>cB<A|"E"c2B2 B2e>d|
"A"c2B>A c>Ac<e|"D"f>ef<g a2g>f|"A"e2a>f "E"e>cd<B|"A"c2A2 A2:|
e>d|"A"c>AG>A F>AE>A|F>AE>A c>Ae>A|c>ea>f e>cB<A|"E"c2B2 B2e>d|
"A"c>AG>A F>AE>A|D>AC>A B,>AA,>A|c<ea>f "E"e>cd<B|"A"c2A2 A2:|
